packages/icons/svg/Outline/batttery-charging.svg

<svg fill="none" height="24" viewBox="0 0 24 24" width="24" xmlns="http://www.w3.org/2000/svg"><path clip-rule="evenodd" d="m8.50403 19.8679c.156.09.327.132.495.132.347 0 .685-.181.869-.504l3.99997-7c.177-.309.176-.69-.003-.998s-.509-.498-.865-.498h-4.27697l3.14497-5.50402c.274-.479.108-1.09-.372-1.364-.478-.273-1.09-.107-1.364.372l-3.99997 7.00002c-.177.309-.176.69.003.998s.509.498.865.498h4.27697l-3.14497 5.504c-.274.479-.108 1.09.372 1.364zm4.22747-13.86798h3.102c1.195 0 2.167 1.08899 2.167 2.429v7.14198c0 1.34-.972 2.429-2.167 2.429h-3.958l1.142-2h2.81c.052-.023.173-.176.173-.429v-7.14198c0-.259-.126-.412-.176-.43h-4.235zm7.2685 4c0-.552.448-1 1-1s1 .448 1 1v3.99998c0 .552-.448 1-1 1s-1-.448-1-1zm-16 5.57118v-7.14305c0-.258.126-.412.167-.428l2.815-.001 1.143-1.999h-3.958c-1.195 0-2.167 1.089-2.167 2.428v7.14305c0 1.339.972 2.429 2.167 2.429h3.101l1.142-1.999h-4.234c-.05-.018-.176-.172-.176-.43z" fill="#6b7280" fill-rule="evenodd"/></svg>

<svg width="24" height="24" viewBox="0 0 24 24" fill="none" xmlns="http://www.w3.org/2000/svg">
<g id="Icon/Outline/batttery-charging">
<path id="Mask" fill-rule="evenodd" clip-rule="evenodd" d="M8.504 19.868C8.66 19.958 8.831 20 8.999 20C9.346 20 9.684 19.819 9.868 19.496L13.868 12.496C14.045 12.187 14.044 11.806 13.865 11.498C13.686 11.19 13.356 11 13 11H8.723L11.868 5.496C12.142 5.017 11.976 4.406 11.496 4.132C11.018 3.859 10.406 4.025 10.132 4.504L6.132 11.504C5.955 11.813 5.956 12.194 6.135 12.502C6.314 12.81 6.644 13 7 13H11.277L8.132 18.504C7.858 18.983 8.024 19.594 8.504 19.868ZM12.7315 6H15.8335C17.0285 6 18.0005 7.089 18.0005 8.429V15.571C18.0005 16.911 17.0285 18 15.8335 18H11.8755L13.0175 16H15.8275C15.8795 15.977 16.0005 15.824 16.0005 15.571V8.429C16.0005 8.17 15.8745 8.017 15.8245 7.999H11.5895L12.7315 6ZM20 10C20 9.448 20.448 9 21 9C21.552 9 22 9.448 22 10V14C22 14.552 21.552 15 21 15C20.448 15 20 14.552 20 14V10ZM4 15.5713V8.4283C4 8.1703 4.126 8.0163 4.167 8.0003L6.982 7.9993L8.125 6.0003H4.167C2.972 6.0003 2 7.0893 2 8.4283V15.5713C2 16.9103 2.972 18.0003 4.167 18.0003H7.268L8.41 16.0013H4.176C4.126 15.9833 4 15.8293 4 15.5713Z" fill="#000000"/>
</g>
</svg>
